packages/core/src/svgs/bit.svg

<svg width="24" height="24" viewBox="0 0 24 24" fill="none" xmlns="http://www.w3.org/2000/svg">
<g clip-path="url(#clip0_31_7031)">
<path d="M0 0H24V24H0V0Z" fill="#ACFE00"/>
<path d="M5.57153 6.85693V17.1426H9.86582C10.8558 17.0355 11.4515 16.2426 11.5715 15.2869V12.9555C11.5287 12.2912 11.1858 11.7855 10.543 11.5969V11.4769C10.9201 11.3398 11.0658 11.0441 11.143 10.6626V8.6655C11.143 7.70122 10.393 6.85693 9.43296 6.85693H5.57153ZM12.4287 6.85693V8.14265H13.7144V6.85693H12.4287ZM15.4287 6.85693V9.85693H12.4287V17.1426H13.7144V11.1426H15.4287V17.1426H18.4287V15.8569H16.7144V11.1426H18.4287V9.85693H16.7144V6.85693H15.4287ZM9.21868 8.14265C9.53153 8.21979 9.82296 8.48979 9.85725 8.81122V10.6669C9.79725 10.9584 9.50582 11.0869 9.20582 11.1426H6.85725V8.14265H9.21868ZM9.71153 12.4284C10.003 12.5012 10.243 12.6598 10.2858 12.9555V15.2226C10.2387 15.5355 10.0158 15.7798 9.71153 15.8569H6.85725V12.4284H9.71153Z" fill="black"/>
</g>
<defs>
<clipPath id="clip0_31_7031">
<rect width="24" height="24" fill="white"/>
</clipPath>
</defs>
</svg>

<svg xmlns="http://www.w3.org/2000/svg" width="24" height="24" fill="none" viewBox="0 0 24 24"><g clip-path="url(#a)"><path fill="#ACFE00" d="M0 0h24v24H0z"/><path fill="#000" d="M5.572 6.857v10.286h4.294c.99-.108 1.585-.9 1.706-1.856v-2.331c-.043-.665-.386-1.17-1.029-1.36v-.12c.377-.136.523-.432.6-.813V8.665c0-.964-.75-1.808-1.71-1.808zm6.857 0v1.286h1.285V6.857zm3 0v3h-3v7.286h1.285v-6h1.715v6h3v-1.286h-1.715v-4.714h1.715V9.857h-1.715v-3zm-6.21 1.286c.313.077.604.347.638.668v1.856c-.06.291-.351.42-.651.476H6.857v-3zm.493 4.285c.291.073.531.232.574.527v2.268a.765.765 0 0 1-.574.634H6.857v-3.429z"/></g><defs><clipPath id="a"><path fill="#fff" d="M0 0h24v24H0z"/></clipPath></defs></svg>
